www/assets/images/test_icons/flags/FJ.svg

<svg fill="none" height="15" viewBox="0 0 21 15" width="21" xmlns="http://www.w3.org/2000/svg" xmlns:xlink="http://www.w3.org/1999/xlink"><mask id="a" height="15" maskUnits="userSpaceOnUse" width="21" x="0" y="0"><path d="m19 0h-17c-1.10457 0-2 .89543-2 2v11c0 1.1046.89543 2 2 2h17c1.1046 0 2-.8954 2-2v-11c0-1.10457-.8954-2-2-2z" fill="#fff"/></mask><g mask="url(#a)"><path d="m19 0h-17c-1.10457 0-2 .89543-2 2v11c0 1.1046.89543 2 2 2h17c1.1046 0 2-.8954 2-2v-11c0-1.10457-.8954-2-2-2z" fill="#64bee7"/><g clip-rule="evenodd" fill-rule="evenodd"><path d="m18 10v-3.5c0-.835-.672-1.5-1.5-1.5h-2c-.826 0-1.5.67-1.5 1.5v3.5c0 .182 1 2 2.5 2s2.5-1.823 2.5-2z" fill="#fff"/><path d="m16 8v1.118h2v.962h-2v1.92h-1v-1.92h-2v-.962h2v-1.118h-2v-3h5v3z" fill="#f00"/><path d="m14 6h3v1h-3z" fill="#ffd200"/></g><path d="m9 1h-7c-.55228 0-1 .44772-1 1v5c0 .55228.44772 1 1 1h7c.55229 0 1-.44772 1-1v-5c0-.55228-.44771-1-1-1z" fill="#fff"/><path clip-rule="evenodd" d="m5 5h-3v-1h3v-2h1v2h3v1h-3v2h-1zm2.5 1v1h1.5v-1zm0-4v1h1.5v-1zm-5.5 4v1h1.5v-1zm0-4v1h1.5v-1z" fill="#f00" fill-rule="evenodd"/><path d="m19 .5h-17c-.82843 0-1.5.67157-1.5 1.5v11c0 .8284.67157 1.5 1.5 1.5h17c.8284 0 1.5-.6716 1.5-1.5v-11c0-.82843-.6716-1.5-1.5-1.5z" stroke="#000" stroke-opacity=".1"/></g></svg>

<svg width="21" height="15" viewBox="0 0 21 15" fill="none" xmlns="http://www.w3.org/2000/svg">
<mask id="mask0_3_154" style="mask-type:alpha" maskUnits="userSpaceOnUse" x="0" y="0" width="21" height="15">
<path d="M19 0H2C0.89543 0 0 0.89543 0 2V13C0 14.1046 0.89543 15 2 15H19C20.1046 15 21 14.1046 21 13V2C21 0.89543 20.1046 0 19 0Z" fill="white"/>
</mask>
<g mask="url(#mask0_3_154)">
<path d="M19 0H2C0.89543 0 0 0.89543 0 2V13C0 14.1046 0.89543 15 2 15H19C20.1046 15 21 14.1046 21 13V2C21 0.89543 20.1046 0 19 0Z" fill="#64BEE7"/>
<path fill-rule="evenodd" clip-rule="evenodd" d="M18 10V6.5C18 5.665 17.328 5 16.5 5H14.5C13.674 5 13 5.67 13 6.5V10C13 10.182 14 12 15.5 12C17 12 18 10.177 18 10Z" fill="white"/>
<path fill-rule="evenodd" clip-rule="evenodd" d="M16 8V9.118H18V10.08H16V12H15V10.08H13V9.118H15V8H13V5H18V8H16Z" fill="#FF0000"/>
<path fill-rule="evenodd" clip-rule="evenodd" d="M14 6H17V7H14V6Z" fill="#FFD200"/>
<path d="M9 1H2C1.44772 1 1 1.44772 1 2V7C1 7.55228 1.44772 8 2 8H9C9.55229 8 10 7.55228 10 7V2C10 1.44772 9.55229 1 9 1Z" fill="white"/>
<path fill-rule="evenodd" clip-rule="evenodd" d="M5 5H2V4H5V2H6V4H9V5H6V7H5V5ZM7.5 6V7H9V6H7.5ZM7.5 2V3H9V2H7.5ZM2 6V7H3.5V6H2ZM2 2V3H3.5V2H2Z" fill="#FF0000"/>
<path d="M19 0.5H2C1.17157 0.5 0.5 1.17157 0.5 2V13C0.5 13.8284 1.17157 14.5 2 14.5H19C19.8284 14.5 20.5 13.8284 20.5 13V2C20.5 1.17157 19.8284 0.5 19 0.5Z" stroke="black" stroke-opacity="0.1"/>
</g>
</svg>
